src/assets/logo.svg

<svg viewBox="0 0 1024 1024" version="1.1" xmlns="http://www.w3.org/2000/svg" width="32" height="32"><path d="M213.333333 682.666667v42.666666a85.333333 85.333333 0 0 0 78.933334 85.12L298.666667 810.666667h85.333333a42.666667 42.666667 0 0 1 0 85.333333H298.666667a170.666667 170.666667 0 0 1-170.666667-170.666667v-42.666666a42.666667 42.666667 0 0 1 85.333333 0z m560.042667-242.602667l170.666667 426.666667a21.333333 21.333333 0 0 1-19.84 29.269333h-45.994667a21.333333 21.333333 0 0 1-19.797333-13.397333L812.544 768h-174.506667l-45.781333 114.602667a21.333333 21.333333 0 0 1-19.84 13.397333H526.506667a21.333333 21.333333 0 0 1-19.797334-29.269333l170.666667-426.666667a21.333333 21.333333 0 0 1 19.797333-13.397333h56.405334a21.333333 21.333333 0 0 1 19.84 13.397333zM725.333333 549.76L672.128 682.666667h106.325333L725.333333 549.76zM341.333333 106.666667V170.666667h149.333334a21.333333 21.333333 0 0 1 21.333333 21.333333v256a21.333333 21.333333 0 0 1-21.333333 21.333333H341.333333v106.666667a21.333333 21.333333 0 0 1-21.333333 21.333333h-42.666667a21.333333 21.333333 0 0 1-21.333333-21.333333V469.333333H106.666667a21.333333 21.333333 0 0 1-21.333334-21.333333v-256a21.333333 21.333333 0 0 1 21.333334-21.333333H256V106.666667a21.333333 21.333333 0 0 1 21.333333-21.333334h42.666667a21.333333 21.333333 0 0 1 21.333333 21.333334z m384 21.333333a170.666667 170.666667 0 0 1 170.666667 170.666667v42.666666a42.666667 42.666667 0 0 1-85.333333 0V298.666667a85.333333 85.333333 0 0 0-85.333334-85.333334h-85.333333a42.666667 42.666667 0 0 1 0-85.333333h85.333333zM256 256H170.666667v128h85.333333V256z m170.666667 0H341.333333v128h85.333334V256z" fill="#0e0e0e" /></svg>

<svg width="1024" height="1024" xmlns="http://www.w3.org/2000/svg" version="1.1" class="icon">
    <defs>
        <linearGradient y2="1" x2="1" y1="0" x1="0" id="svg_15">
            <stop offset="0" stop-color="#6263FF"/>
            <stop offset="0.99609" stop-opacity="0.98828" stop-color="#ff003b"/>
        </linearGradient>
    </defs>
    <g>
        <path fill-opacity="0.81" fill="url(#svg_15)" d="m213.33333,682.66667l0,42.66666a85.33333,85.33333 0 0 0 78.93334,85.12l6.4,0.21334l85.33333,0a42.66667,42.66667 0 0 1 0,85.33333l-85.33333,0a170.66667,170.66667 0 0 1 -170.66667,-170.66667l0,-42.66666a42.66667,42.66667 0 0 1 85.33333,0zm560.04267,-242.60267l170.66667,426.66667a21.33333,21.33333 0 0 1 -19.84,29.26933l-45.99467,0a21.33333,21.33333 0 0 1 -19.79733,-13.39733l-45.86667,-114.60267l-174.50667,0l-45.78133,114.60267a21.33333,21.33333 0 0 1 -19.84,13.39733l-45.90933,0a21.33333,21.33333 0 0 1 -19.79734,-29.26933l170.66667,-426.66667a21.33333,21.33333 0 0 1 19.79733,-13.39733l56.40534,0a21.33333,21.33333 0 0 1 19.84,13.39733l-0.04267,0zm-48.04267,109.696l-53.20533,132.90667l106.32533,0l-53.12,-132.90667zm-384,-443.09333l0,64l149.33334,0a21.33333,21.33333 0 0 1 21.33333,21.33333l0,256a21.33333,21.33333 0 0 1 -21.33333,21.33333l-149.33334,0l0,106.66667a21.33333,21.33333 0 0 1 -21.33333,21.33333l-42.66667,0a21.33333,21.33333 0 0 1 -21.33333,-21.33333l0,-106.66667l-149.33333,0a21.33333,21.33333 0 0 1 -21.33334,-21.33333l0,-256a21.33333,21.33333 0 0 1 21.33334,-21.33333l149.33333,0l0,-64a21.33333,21.33333 0 0 1 21.33333,-21.33334l42.66667,0a21.33333,21.33333 0 0 1 21.33333,21.33334zm384,21.33333a170.66667,170.66667 0 0 1 170.66667,170.66667l0,42.66666a42.66667,42.66667 0 0 1 -85.33333,0l0,-42.66666a85.33333,85.33333 0 0 0 -85.33334,-85.33334l-85.33333,0a42.66667,42.66667 0 0 1 0,-85.33333l85.33333,0zm-469.33333,128l-85.33333,0l0,128l85.33333,0l0,-128zm170.66667,0l-85.33334,0l0,128l85.33334,0l0,-128z"/>
    </g>
</svg>
